images/icons/flame.svg

<svg width="25" height="30" viewBox="0 0 25 30" fill="none" xmlns="http://www.w3.org/2000/svg"><g opacity="0.2"><path fill-rule="evenodd" clip-rule="evenodd" d="M13.9697 2.91035C13.2187 1.96348 11.7813 1.96348 11.0303 2.91035L7.26148 7.66176L4.83362 6.36218C4.61346 6.24433 4.1221 6.09629 3.88966 6.05712C2.72329 5.86056 2.04098 6.78497 2.04447 8.03807L2.06814 16.5554C2.02313 16.9355 2 17.322 2 17.7137C2 23.2979 6.70101 27.8248 12.5 27.8248C18.299 27.8248 23 23.2979 23 17.7137C23 15.3518 22.1591 13.1791 20.7498 11.4581L13.9697 2.91035ZM11.7198 13.1888C12.0889 12.6861 12.8399 12.6861 13.209 13.1888L15.7324 16.6249C16.5171 17.4048 17 18.4679 17 19.6396C17 22.0329 14.9853 23.973 12.5 23.973C10.0147 23.973 8 22.0329 8 19.6396C8 18.6017 8.37893 17.649 9.01085 16.9029C9.0252 16.8668 9.04457 16.8315 9.06935 16.7978L11.7198 13.1888Z" fill="black"/></g></svg>

<?xml version="1.0" encoding="utf-8"?>
<!-- Generator: Adobe Illustrator 28.0.0, SVG Export Plug-In . SVG Version: 6.00 Build 0)  -->
<svg version="1.1" id="Layer_1" xmlns="http://www.w3.org/2000/svg" xmlns:xlink="http://www.w3.org/1999/xlink" x="0px" y="0px"
	 viewBox="0 0 25 30" style="enable-background:new 0 0 25 30;" xml:space="preserve">
<style type="text/css">
	.st0{fill-rule:evenodd;clip-rule:evenodd;fill:#FFFFFF;}
</style>
<g>
	<path class="st0" d="M14,2.9C13.2,2,11.8,2,11,2.9L7.3,7.7L4.8,6.4C4.6,6.2,4.1,6.1,3.9,6.1C2.7,5.9,2,6.8,2,8l0,8.5
		C2,16.9,2,17.3,2,17.7c0,5.6,4.7,10.1,10.5,10.1c5.8,0,10.5-4.5,10.5-10.1c0-2.4-0.8-4.5-2.3-6.3L14,2.9z M11.7,13.2
		c0.4-0.5,1.1-0.5,1.5,0l2.5,3.4c0.8,0.8,1.3,1.8,1.3,3c0,2.4-2,4.3-4.5,4.3S8,22,8,19.6c0-1,0.4-2,1-2.7c0,0,0-0.1,0.1-0.1
		L11.7,13.2z"/>
</g>
</svg>
